X: 291
T: Little Burnt Potato
M:6/8
R:jig
L:1/8
Z:Alf Warnock - alf0@rogers.com
K:D
fg|"D"a^ga ba^g|afd Ade|"D7"fef g2f|"G"efe Bcd|
"A"efe dcB|Ace a3| a^ga bag|"D"f3 f:|
e|"D"f2A f2A|f3 f2e|def agf|"G"g3 gef|"Em"gba gfe|
"A"dcB A2a|[1 a^ga ba=g|"D"f3 fd :||[2 a^ga b2c|"D"d3 d3|]
